X:01
T: Roddy McCorley
M: 4/4
K: Gmaj
(GA) | B2 (AB) D2 D2 | B3 A G2 D2 | E2 G2 G3 A | G6 (Bc) |
d2 d2 d2 (Bd) | e2 e2 d2 (BA) | G2 E2 c2 B2 | A6 (Bc) |
d2 d2 d2 (Bd) | e2 e2 d2 (BA) | G2 E2 c2 B2 | A6 (GA) |
B2 AB D2 D2 | B3 A G2 D2 | E2 G2 G3 A | G6 |]
T: A Nation Once Again
M: 4/4
K: Dmaj
M: 2/4
FG |A2 Bc | d2 cd | f3 e | d3 c | B2 e2 | dc Bc | e2 d2 | d2 FG |
A2 Bc | d2 cd | f3 e | d3 c | B2 e2 | dc Bc | B2 A2 | A3 ||
A |A2 B2 | c2 d2 | e3 c | A3 A | B2 c2 | d2 e2 | f4- | f2 dc |
B2 B2 | g3 f | e2 d2 | c2 B2 | Af- f2 | e3 d | d4- |d2 ||
A2 |f3 e | d2 c2 | B4- | B2 B2 | g3 f | e2 d2 | c4- | c2 A2 |
A2 Bc | d2 cd | B2 ed | c2 de | fg- g2 | e3 d | d4- | d2 |]
T: O'Donnell Abu
M: 4/4
K: Dmaj
D2 FG A2 FA | f2 dB A2 GF | E2 E>F G2 FE | D2 FG A4 |
D2 FG A2 FA | f2 dB A2 GF | E2 e>d cA/A/Bc | d2 d>c dA/B/ c/d/e/=f/ ||
|: f2 fe dB A2 | d2 dB AF D2 | G2 BG F2 AF | E2 E>F EGFE |
D2 FG A2 FA | f2 dB A2 GF | E2 e>d cA/A/Bc |[1 d2 d>c dA/B/ c/d/e/=f/ :|[2 d2 d>c d4 |]
